X: 1002
T: THE WRECKER'S DAUGHTER
B: Oliver Ditson "The Boston Collection of Instrumental Music" 1910 p.100 #2
F: http://conquest.imslp.info/files/imglnks/usimg/8/8f/IMSLP175643-PMLP309456-bostoncollection00bost_bw.pdf
%: 2012 John Chambers <jc:trillian.mit.edu>
M: 2/4
L: 1/16
K: D
|:\
AAAz AAAz | AAAz AAAz | F2A2 d4 | d2c2B2A2 |\
BBBz BBBz | BBBz BBBz | B2d2 g4 | g2f2e2d2 |
cccz cccz | cccz cccz | A2ce a4 | A2ce a4 |\
f2e2d2f2 | e2d2c2e2 | dddz dddz | d4 z4 :|
|:\
e2e2f2e2 | c2c2d2c2 | B2B2f3e | c3^G ABcd |\
e2e2f2e2 | c2c2d2c2 | B2B2f2e2 | A2z2 a4 :|
|:\
(F4A2)d2 | (F4A2)d2 | (G4B2)d2 | (F4A2)d2 |\
(E4G2)B2 | (A4d2)f2 | e2^gg g2g2 | a2z2 a4 |
(F4A2)d2 | (F4A2)d2 | (G4B2)d2 | (F4A2)d2 |\
(E4G2)B2 | (A4d2)f2 | e2AA B2c2 | "^da Capo"d6 z2 :|

%%sep 1 1 500
%%sep 1 1 500
